X: 93
T: Rolling in the Ryegrass
B: begged borrowed and stolen
M:4/4
L:1/8
R: reel
Q: 1/4=120
K:D
V:1 
|:"D"ABAF DFAF | "G"G2BG dGBG | "D"ABAF DFAF | "A"GBAG "D"FDDF :|
|:"D"ABde fdef | "G"g2fg eddc | "D"ABde faab |1 "A"afdf "D"efdB :|2 "A"afdf "D"e2d2||
% abcbook-tune_id 627e2b1f9731a910c7e3e3e0


% abcbook-boost 0
% abcbook-tablature 
% abcbook-transpose 
% abcbook-lastupdated 1652725431135
% abcbook-soundfonts 
% abcbook-repeats 3
% Rhythm Reel (key of d)
% Titles One title
% Transcriptions Only 1 transcription
% Movement Has lots of stepwise movement
% Movement Has some stepwise movement
% Mode major
% Key D
% Time_signature 2/2
% Has_accompaniment_chords Has chords

